backend/views/easymod-diagram-pbs-view/src/main/resources/images/favorite-icon.svg

<svg xmlns="http://www.w3.org/2000/svg" xmlns:xlink="http://www.w3.org/1999/xlink" version="1.1" width="256" height="256" viewBox="0 0 256 256" xml:space="preserve">


<g style="stroke: none; stroke-width: 0; stroke-dasharray: none; stroke-linecap: butt; stroke-linejoin: miter; stroke-miterlimit: 10; fill: none; fill-rule: nonzero; opacity: 1;" transform="translate(1.4065934065934016 1.4065934065934016) scale(2.81 2.81)" >
	<path d="m19.65 9.04-4.84-.42-1.89-4.45c-.34-.81-1.5-.81-1.84 0L9.19 8.63l-4.83.41c-.88.07-1.24 1.17-.57 1.75l3.67 3.18-1.1 4.72c-.2.86.73 1.54 1.49 1.08l4.15-2.5 4.15 2.51c.76.46 1.69-.22 1.49-1.08l-1.1-4.73 3.67-3.18c.67-.58.32-1.68-.56-1.75M12 15.4l-3.76 2.27 1-4.28-3.32-2.88 4.38-.38L12 6.1l1.71 4.04 4.38.38-3.32 2.88 1 4.28z" style="stroke: none; stroke-width: 1; stroke-dasharray: none; stroke-linecap: butt; stroke-linejoin: miter; stroke-miterlimit: 10; fill: rgb(0,0,0); fill-rule: nonzero; opacity: 1;" transform=" matrix(1 0 0 1 0 0) " stroke-linecap="round" />
</g>
</svg>

<?xml version="1.0" encoding="UTF-8" standalone="no"?>
<svg
   version="1.1"
   width="48.098331"
   height="45.987934"
   viewBox="0 0 48.098331 45.987934"
   xml:space="preserve"
   id="svg136"
   xmlns="http://www.w3.org/2000/svg"
   xmlns:svg="http://www.w3.org/2000/svg"><defs
   id="defs140" />


<g
   style="opacity:1;fill:none;fill-rule:nonzero;stroke:none;stroke-width:0;stroke-linecap:butt;stroke-linejoin:miter;stroke-miterlimit:10;stroke-dasharray:none"
   transform="matrix(2.81,0,0,2.81,-9.6749498,-10.010625)"
   id="g134">
	<path
   d="M 19.65,9.04 14.81,8.62 12.92,4.17 c -0.34,-0.81 -1.5,-0.81 -1.84,0 L 9.19,8.63 4.36,9.04 C 3.48,9.11 3.12,10.21 3.79,10.79 l 3.67,3.18 -1.1,4.72 c -0.2,0.86 0.73,1.54 1.49,1.08 l 4.15,-2.5 4.15,2.51 c 0.76,0.46 1.69,-0.22 1.49,-1.08 l -1.1,-4.73 3.67,-3.18 C 20.88,10.21 20.53,9.11 19.65,9.04 M 12,15.4 8.24,17.67 9.24,13.39 5.92,10.51 10.3,10.13 12,6.1 l 1.71,4.04 4.38,0.38 -3.32,2.88 1,4.28 z"
   style="opacity:1;fill:#000000;fill-rule:nonzero;stroke:none;stroke-width:1;stroke-linecap:butt;stroke-linejoin:miter;stroke-miterlimit:10;stroke-dasharray:none"
   stroke-linecap="round"
   id="path132" />
</g>
</svg>
